X: 77
T:An Old man is a Bed full of bones
M:6/8
L:1/8
Q:110
R:Jig
K:C
eee e2e|ecA c2c|d2c d2c|d2e f2d|eee e2e|ecA c2e|f2f e>dc|d2e f>ed:|

